X:1
T:Galilee (Armes), LM
T:Galilee (Armes), LM
T:Philip Armes, 1875
T:Public Domain Courtesy of the Cyber Hymnal™
C:Philip Armes, 1875
Z:Public Domain
Z:Courtesy of the Cyber Hymnal™
%%score ( 1 2 ) ( 3 4 )
L:1/8
Q:1/4=115
M:3/4
K:E
V:1 treble 
V:2 treble 
V:3 bass 
V:4 bass 
V:1
 [EB]2 [EG]2 [DF]2 | E4 [_CD]2 | c4 c2 | B4 [DB]2 | [Ee]4 [Fc]2 | (d3 c) [FB]2 | %6
 ([Ec]2 [FG]2) [E^A]2 | [DB]6 | [EB]2 [Ec]2 [E=d]2 | [Ec]4 [GB]2 | ([Ac]2 [GB]2) [FA]2 | %11
 ([EG]2 [DF]2) ([EG][FA]) | ([GB]2 [FA]2) [EG]2 | (e2 c2) [EA]2 | [EG]4 [DF]2 | [B,E]6 |] %16
V:2
 x6 | E4 x2 | (C3 D) (EF) | (G2 E2) x2 | x6 | F4 x2 | x6 | x6 | x6 | x6 | x6 | x6 | x6 | E4 x2 | %14
 x6 | x6 |] %16
V:3
 [E,G,]2 [E,B,]2 [B,,A,]2 | [C,G,]4 [B,,G,]2 | A,4 A,2 | ([E,G,]2 [G,B,]2) [A,B,]2 | %4
 [G,B,]4 [^A,E]2 | [B,D]4 [D,D]2 | (C2 D2) [F,C]2 | [B,,B,]6 | [E,G,]2 [E,A,]2 [E,B,]2 | %9
 (A,2 C2) [E,E]2 | [A,E]4 [A,C]2 | B,4 ([G,B,][F,A,]) | (G,2 A,2) [E,B,]2 | (C2 A,2) [C,E,]2 | %14
 (B,2 E,2) [B,,A,]2 | [E,G,]6 |] %16
V:4
 x6 | x6 | (A,,3 B,,) (C,D,) | x6 | x6 | x6 | F,4 x2 | x6 | x6 | A,4 x2 | x6 | (B,3 A,) x2 | %12
 E,4 x2 | A,,4 x2 | B,,4 x2 | x6 |] %16

